src/lib/packages/icons/src/assets/filled/atom.svg

<svg width="24" height="24" viewBox="0 0 24 24" fill="none" xmlns="http://www.w3.org/2000/svg">
<path d="M19.7749 12C20.4059 11.01 20.926 10.023 21.302 9.06895C22.337 6.43895 22.215 4.29797 20.957 3.04197C19.699 1.78397 17.5599 1.66198 14.9299 2.69798C13.9759 3.07298 12.989 3.59398 11.999 4.22398C11.009 3.59298 10.0221 3.07298 9.06813 2.69798C6.43813 1.66198 4.29703 1.78397 3.04103 3.04197C1.78303 4.29897 1.66106 6.43993 2.69606 9.06993C3.07206 10.0239 3.59191 11.011 4.22291 12.001C3.59191 12.991 3.07206 13.978 2.69606 14.932C1.66106 17.562 1.78303 19.7029 3.04103 20.9599C3.73303 21.6519 4.69297 22.001 5.85597 22.001C6.80397 22.001 7.88613 21.7699 9.06813 21.3039C10.0221 20.9289 11.009 20.4079 11.999 19.7779C12.989 20.4089 13.9759 20.9289 14.9299 21.3039C16.1119 21.7689 17.1941 22.001 18.1421 22.001C19.3041 22.001 20.265 21.6529 20.957 20.9599C22.215 19.7029 22.337 17.562 21.302 14.932C20.927 13.977 20.4059 12.99 19.7749 12ZM15.6641 4.55894C16.6051 4.18794 17.453 4.00193 18.138 4.00193C18.755 4.00193 19.241 4.15301 19.544 4.45701C20.185 5.09701 20.1469 6.54702 19.4409 8.33702C19.1999 8.95002 18.8841 9.58293 18.5171 10.2209C17.8491 9.36293 17.106 8.51694 16.294 7.70494C15.482 6.89294 14.6361 6.15101 13.7791 5.48301C14.4181 5.11501 15.0511 4.79994 15.6641 4.55894ZM9.11891 9.119C10.0499 8.189 11.022 7.36098 12 6.64598C12.978 7.35998 13.9501 8.188 14.8811 9.119C15.8121 10.05 16.64 11.023 17.355 12C16.64 12.978 15.8121 13.951 14.8811 14.881C13.9501 15.811 12.978 16.639 12 17.354C11.022 16.64 10.0499 15.812 9.11891 14.881C8.18791 13.95 7.36003 12.977 6.64503 12C7.36003 11.022 8.18791 10.049 9.11891 9.119ZM4.55909 8.33604C3.85409 6.54604 3.81607 5.09604 4.45607 4.45604C4.76007 4.15304 5.24507 4.00096 5.86207 4.00096C6.54707 4.00096 7.39395 4.18796 8.33595 4.55796C8.94895 4.79996 9.58198 5.11504 10.22 5.48204C9.36198 6.14904 8.51709 6.89196 7.70509 7.70396C6.89309 8.51596 6.14995 9.36195 5.48195 10.22C5.11495 9.58195 4.80009 8.95004 4.55909 8.33604ZM8.33595 19.441C6.54895 20.146 5.09807 20.1849 4.45607 19.5439C3.81507 18.9029 3.85309 17.4529 4.55909 15.6629C4.80009 15.0499 5.11592 14.417 5.48292 13.779C6.15092 14.637 6.89407 15.483 7.70607 16.295C8.51807 17.107 9.36396 17.8489 10.221 18.5169C9.58196 18.8849 8.94895 19.2 8.33595 19.441ZM19.544 19.5439C18.902 20.1839 17.4531 20.146 15.6641 19.441C15.0511 19.199 14.418 18.8839 13.78 18.5169C14.637 17.8499 15.4829 17.107 16.2949 16.295C17.1069 15.483 17.8501 14.637 18.5181 13.779C18.8851 14.418 19.1999 15.0499 19.4419 15.6629C20.1459 17.4529 20.185 18.9039 19.544 19.5439ZM10.7649 12C10.7649 11.31 11.32 10.75 12.01 10.75H12.02C12.71 10.75 13.27 11.31 13.27 12C13.27 12.69 12.71 13.25 12.02 13.25C11.33 13.25 10.7649 12.69 10.7649 12Z" fill="currentColor"/>
</svg>

<svg xmlns="http://www.w3.org/2000/svg" width="24" height="24" fill="none"><path fill="currentColor" d="M19.775 12c.63-.99 1.151-1.977 1.527-2.931 1.035-2.63.913-4.771-.345-6.027-1.258-1.258-3.397-1.38-6.027-.344-.954.375-1.941.896-2.931 1.526-.99-.631-1.977-1.151-2.93-1.526-2.63-1.036-4.772-.914-6.028.344-1.258 1.257-1.38 3.398-.345 6.028.376.954.896 1.941 1.527 2.931-.631.99-1.15 1.977-1.527 2.931-1.035 2.63-.913 4.77.345 6.028.692.692 1.652 1.04 2.815 1.04.948 0 2.03-.231 3.212-.697.954-.375 1.941-.896 2.931-1.526.99.63 1.977 1.15 2.93 1.526 1.183.465 2.265.697 3.213.697 1.162 0 2.123-.348 2.815-1.041 1.258-1.257 1.38-3.398.345-6.028-.375-.955-.896-1.942-1.527-2.932Zm-4.11-7.441c.94-.371 1.788-.557 2.473-.557.617 0 1.103.151 1.406.455.641.64.603 2.09-.103 3.88a14.376 14.376 0 0 1-.924 1.884 27.18 27.18 0 0 0-4.738-4.738 14.327 14.327 0 0 1 1.885-.924Zm-6.546 4.56A24.827 24.827 0 0 1 12 6.646c.978.714 1.95 1.542 2.881 2.473A24.823 24.823 0 0 1 17.355 12a24.658 24.658 0 0 1-2.474 2.881A24.828 24.828 0 0 1 12 17.354a24.634 24.634 0 0 1-2.881-2.473A24.823 24.823 0 0 1 6.645 12a24.658 24.658 0 0 1 2.474-2.881Zm-4.56-.783c-.705-1.79-.743-3.24-.103-3.88.304-.303.79-.455 1.406-.455.685 0 1.532.187 2.474.557.613.242 1.246.557 1.884.924a27.17 27.17 0 0 0-4.738 4.738 14.31 14.31 0 0 1-.923-1.884Zm3.777 11.105c-1.787.705-3.238.744-3.88.103-.64-.641-.603-2.091.103-3.881.241-.613.557-1.246.924-1.884a27.177 27.177 0 0 0 4.738 4.738 14.33 14.33 0 0 1-1.885.924Zm11.208.103c-.642.64-2.09.602-3.88-.103a14.51 14.51 0 0 1-1.884-.924 27.132 27.132 0 0 0 4.738-4.738c.367.639.682 1.27.924 1.884.704 1.79.743 3.24.102 3.88ZM10.764 12c0-.69.556-1.25 1.246-1.25h.01a1.25 1.25 0 0 1 0 2.5c-.69 0-1.255-.56-1.255-1.25Z"/></svg>
